X:153
T:Green Grow The Rashes, O
C:words: R.Burns
M:C
Q:1/4=84
K:C
E/D/|"C"CC E>D "Am"EC C>E|"Dm"DD A>G AD D>E|!
w:There is not but care on ev-'ry han' In ev- 'ry hour that pass- es, O; What
"F"F>F FA "C"G>F EC|"Dm"D>F "E7"ED "Am"CA, A,2"G"|!
w:sig- ni- fies the life of man, An' 'twere na for the lass- es, O?
"C"G>c- c>B cG G2|"Dm"A>d- d>c dA A>B|
w:Green grow * the rash- es, O. Green grow * the rash- es, O; The
"Am"c>d cB/A/ "C"GE CE|"Dm"D>F "E7"ED "Am"CA, A,"G":|]
w:swee- test hours that_e'er I spend are spent a- mong the lass- es. O.
W:
W:The war'ly race may riches chase,
W:An' riches still may fly them, O;
W:An' tho' at last they catch them fast.
W:Their hearts can ne'er enjoy them, O.
W:~ Chorus ~
W:
W:
W:Gie me a cannie hour at e'en,
W:My arms around my dearie, O;
W:An' war'ly cares an' war'ly men
W:may a' gae tapsal teerie, O!
W:~ Chorus ~
W:
W:
W:An' you sae douce, ye sneer at this,
W:Yer not but senseless asses, O;
W:The wisest man the warl' e'er saw,
W:He clearly lov'd the lasses, O.
W:~ Chorus ~
W:
W:
W:Auld Nature swears the lovely dears,
W:Her noblest work she classes, O;
W:Her prentice han' she try'd on man,
W:An' then she made the lasses, O.
W:~ Chorus ~

